public/icons/notification_on.svg

<svg width="24" height="25" viewBox="0 0 24 25" fill="none" xmlns="http://www.w3.org/2000/svg">
<mask id="mask0_2688_1783" style="mask-type:luminance" maskUnits="userSpaceOnUse" x="3" y="1" width="19" height="19">
<path fill-rule="evenodd" clip-rule="evenodd" d="M3.00012 1.69482H21.497V19.0428H3.00012V1.69482Z" fill="white"/>
</mask>
<g mask="url(#mask0_2688_1783)">
<path fill-rule="evenodd" clip-rule="evenodd" d="M12.2471 3.19482C8.75214 3.19482 6.31614 5.93282 6.31614 8.38982C6.31614 10.4688 5.73914 11.4298 5.22914 12.2778C4.82014 12.9588 4.49714 13.4968 4.49714 14.6658C4.66414 16.5518 5.90914 17.5428 12.2471 17.5428C18.5501 17.5428 19.8341 16.5078 20.0001 14.6008C19.9971 13.4968 19.6741 12.9588 19.2651 12.2778C18.7551 11.4298 18.1781 10.4688 18.1781 8.38982C18.1781 5.93282 15.7421 3.19482 12.2471 3.19482ZM12.2471 19.0428C7.57114 19.0428 3.34514 18.7128 3.00014 14.7298C2.99714 13.0818 3.50014 12.2438 3.94414 11.5058C4.39314 10.7578 4.81614 10.0528 4.81614 8.38982C4.81614 5.15682 7.80212 1.69482 12.2471 1.69482C16.6921 1.69482 19.6781 5.15682 19.6781 8.38982C19.6781 10.0528 20.1011 10.7578 20.5501 11.5058C20.9941 12.2438 21.4971 13.0818 21.4971 14.6658C21.1481 18.7128 16.9231 19.0428 12.2471 19.0428Z" fill="#19191B"/>
</g>
<path fill-rule="evenodd" clip-rule="evenodd" d="M12.1984 23.1949H12.1964C11.0754 23.1939 10.0144 22.6999 9.20939 21.8029C8.93239 21.4959 8.95739 21.0209 9.26539 20.7449C9.57339 20.4669 10.0474 20.4919 10.3244 20.8009C10.8424 21.3779 11.5074 21.6949 12.1974 21.6949C12.8904 21.6949 13.5594 21.3779 14.0784 20.7999C14.3564 20.4929 14.8304 20.4679 15.1374 20.7449C15.4454 21.0219 15.4704 21.4969 15.1934 21.8039C14.3854 22.7009 13.3224 23.1949 12.1984 23.1949Z" fill="#19191B"/>
<path d="M18 9.5C20.4853 9.5 22.5 7.48528 22.5 5C22.5 2.51472 20.4853 0.5 18 0.5C15.5147 0.5 13.5 2.51472 13.5 5C13.5 7.48528 15.5147 9.5 18 9.5Z" fill="#FF5454" stroke="white"/>
</svg>

<svg xmlns="http://www.w3.org/2000/svg" width="24" height="25" fill="none"><mask id="a" width="19" height="19" x="3" y="1" maskUnits="userSpaceOnUse" style="mask-type:luminance"><path fill="#fff" fill-rule="evenodd" d="M3 1.695h18.497v17.348H3V1.695Z" clip-rule="evenodd"/></mask><g mask="url(#a)"><path fill="#19191B" fill-rule="evenodd" d="M12.247 3.195c-3.495 0-5.93 2.738-5.93 5.195 0 2.079-.578 3.04-1.088 3.888-.409.68-.732 1.219-.732 2.388.167 1.886 1.412 2.877 7.75 2.877 6.303 0 7.587-1.035 7.753-2.942-.003-1.104-.326-1.642-.735-2.323-.51-.848-1.087-1.81-1.087-3.888 0-2.457-2.436-5.195-5.93-5.195Zm0 15.848c-4.676 0-8.902-.33-9.247-4.313-.003-1.648.5-2.486.944-3.224.45-.748.872-1.453.872-3.116 0-3.233 2.986-6.695 7.431-6.695s7.431 3.462 7.431 6.695c0 1.663.423 2.368.872 3.116.444.738.947 1.576.947 3.16-.349 4.047-4.574 4.377-9.25 4.377Z" clip-rule="evenodd"/></g><path fill="#19191B" fill-rule="evenodd" d="M12.198 23.195h-.002c-1.12-.001-2.182-.495-2.987-1.392a.749.749 0 1 1 1.115-1.002c.518.577 1.183.894 1.873.894.693 0 1.362-.317 1.881-.895a.75.75 0 0 1 1.115 1.004c-.808.897-1.87 1.39-2.995 1.39Z" clip-rule="evenodd"/><path fill="#FF5454" stroke="#fff" d="M18 9.5a4.5 4.5 0 1 0 0-9 4.5 4.5 0 0 0 0 9Z"/></svg>
